X:8
T:Baile an tSamhraidh* 
T:Ballintoura, Teahan's, Knocknagree, more
B:CRE2.092 (gan ainm)
F:file ID: cre.2/008baile
L:1/8
M:6/8
R:jig
Q:160
K:Em
efe B2A|G2E B2A|FEF A2F|D2F A3|
"5"efe B2A|G2E B2A|FEF A2F|1 E3 E3:|2 E3 E||
GA|"9"B2e ede|faa a3|baf a2f|efe dBA|
"13"B2e ede|f2a a2a|baf a2f|e3 e2d|
"17"B2e ede|faa a2a|baf a2f|e2d B2d|
"21"efe B2A|G2E B2A|FEF A2F|E3 E3|]

%%%

